Papirus/64x64/apps/com.github.bcedu.museic.svg

<?xml version="1.0" encoding="UTF-8" standalone="no"?>
<svg
   id="_图层_1"
   version="1.1"
   viewBox="0 0 64 64" width="64" height="64"
   sodipodi:docname="com.github.bcedu.museic.svg"
   xml:space="preserve"
   inkscape:version="1.4 (e7c3feb100, 2024-10-09)"
   xmlns:inkscape="http://www.inkscape.org/namespaces/inkscape"
   xmlns:sodipodi="http://sodipodi.sourceforge.net/DTD/sodipodi-0.dtd"
   xmlns="http://www.w3.org/2000/svg"
   xmlns:svg="http://www.w3.org/2000/svg"><sodipodi:namedview
     id="namedview26"
     pagecolor="#505050"
     bordercolor="#eeeeee"
     borderopacity="1"
     inkscape:showpageshadow="0"
     inkscape:pageopacity="0"
     inkscape:pagecheckerboard="0"
     inkscape:deskcolor="#505050"
     inkscape:zoom="10.6875"
     inkscape:cx="32"
     inkscape:cy="32.093567"
     inkscape:window-width="1920"
     inkscape:window-height="939"
     inkscape:window-x="0"
     inkscape:window-y="34"
     inkscape:window-maximized="1"
     inkscape:current-layer="_图层_1" /><!-- Generator: Adobe Illustrator 29.0.1, SVG Export Plug-In . SVG Version: 2.1.0 Build 192)  --><defs
     id="defs6"><style
       id="style1">
      .st0 {
        fill-opacity: .5;
      }

      .st0, .st1, .st2, .st3, .st4, .st5, .st6, .st7 {
        fill: #fff;
      }

      .st8 {
        fill: #133c9a;
      }

      .st2, .st9 {
        display: none;
      }

      .st3 {
        fill-opacity: .2;
      }

      .st4 {
        fill-opacity: .9;
      }

      .st10 {
        fill: #3370ff;
      }

      .st11 {
        fill: url(#_未命名的渐变_3);
      }

      .st12 {
        fill: url(#_未命名的渐变);
      }

      .st5 {
        fill-opacity: .3;
      }

      .st6 {
        fill-opacity: 0;
      }

      .st7 {
        fill-opacity: .7;
      }

      .st13 {
        fill: #00d6b9;
      }

      .st14 {
        fill: url(#_未命名的渐变_2);
      }
    </style><radialGradient
       id="_未命名的渐变"
       data-name="未命名的渐变"
       cx="123.9"
       cy="-40.2"
       fx="123.9"
       fy="-40.2"
       r="59.4"
       gradientTransform="translate(-26.8 25.5) scale(.6 -.7)"
       gradientUnits="userSpaceOnUse"><stop
         offset="0"
         stop-color="#db202e"
         id="stop1" /><stop
         offset="1"
         stop-color="#e01b24"
         id="stop2" /></radialGradient><radialGradient
       id="_未命名的渐变_2"
       data-name="未命名的渐变 2"
       cx="67.6"
       cy="26.8"
       fx="67.6"
       fy="26.8"
       r="105.2"
       gradientTransform="translate(-26.6 25.3) scale(.6 -.7)"
       gradientUnits="userSpaceOnUse"><stop
         offset="0"
         stop-color="#ffb648"
         id="stop3" /><stop
         offset="1"
         stop-color="#ff7800"
         stop-opacity="0"
         id="stop4" /></radialGradient><radialGradient
       id="_未命名的渐变_3"
       data-name="未命名的渐变 3"
       cx="61.7"
       cy="18.6"
       fx="61.7"
       fy="18.6"
       r="68"
       gradientTransform="translate(-26.8 25.8) scale(.6 -.7)"
       gradientUnits="userSpaceOnUse"><stop
         offset="0"
         stop-color="#c64600"
         id="stop5" /><stop
         offset="1"
         stop-color="#a51d2d"
         id="stop6" /></radialGradient></defs><path
     class="st1"
     d="M47.5,64.1H13.8c-7.6,0-13.8-6.3-13.8-13.8V13.7C0,6.2,6.2,0,13.7,0h36.6c7.5,0,13.7,6.2,13.7,13.7v36.6c0,7.5-6.2,13.7-13.7,13.7h-2.9.1Z"
     id="path6"
     style="fill:#f9f9f9;fill-opacity:1" /><g
     id="g26"
     transform="translate(-1.7777951,-1.1758836)"><path
       style="opacity:0.2"
       d="M 54.010765,7.2401554 24.06068,14.145149 c -4.221512,0.532153 -4.060689,4.854879 -4.060689,4.854879 v 3.999997 14.429678 c -0.975385,-0.280958 -1.984963,-0.42556 -2.999998,-0.429688 -6.075128,0 -10.9999924,4.924865 -10.9999924,10.999993 C 6.0000006,54.075135 10.924865,59 16.999993,59 c 5.685644,-0.0028 10.432335,-4.337893 10.94921,-9.999993 h 0.05078 V 48.000008 21.316432 L 49.99997,16.083911 v 15.345796 c -0.975386,-0.280958 -1.984963,-0.425559 -2.999998,-0.429687 -6.075128,0 -10.999992,4.924864 -10.999992,10.999992 0,6.075128 4.924864,10.999992 10.999992,10.999992 5.685644,-0.0028 10.432335,-4.337893 10.94921,-9.999993 h 0.05078 V 14.400318 11.000034 c 0,0 0.05206,-4.6106686 -3.989199,-3.7598786 z"
       id="path1" /><path
       style="fill:#4f4f4f"
       d="M 54.010765,6.2401568 24.06068,13.14515 c -4.221512,0.532153 -4.060689,4.854879 -4.060689,4.854879 v 3.999998 14.429677 c -0.975385,-0.280957 -1.984963,-0.425559 -2.999998,-0.429687 -6.075128,0 -10.9999924,4.924864 -10.9999924,10.999992 0,6.075128 4.9248644,10.999992 10.9999924,10.999992 5.685644,-0.0028 10.432335,-4.337893 10.94921,-9.999993 h 0.05078 V 47.000009 20.316434 L 49.99997,15.083912 v 15.345797 c -0.975386,-0.280958 -1.984963,-0.42556 -2.999998,-0.429688 -6.075128,0 -10.999992,4.924865 -10.999992,10.999992 0,6.075128 4.924864,10.999993 10.999992,10.999993 5.685644,-0.0028 10.432335,-4.337893 10.94921,-9.999993 h 0.05078 V 13.40032 10.000035 c 0,0 0.05206,-4.6106682 -3.989199,-3.7598782 z"
       id="path2" /><path
       style="opacity:0.1;fill:#ffffff"
       d="m 54.720703,6.1425781 c -0.221612,0.012966 -0.456406,0.044482 -0.708984,0.097656 L 24.060547,13.144531 C 19.839035,13.676684 20,18 20,18 v 1 c 0,0 -0.160965,-4.323316 4.060547,-4.855469 L 54.011719,7.2402344 C 58.052978,6.3894444 58,11 58,11 v -1 c 0,0 0.04488,-4.0519081 -3.279297,-3.8574219 z M 47,30 c -6.075128,0 -11,4.924873 -11,11 0,0.168757 0.01787,0.333099 0.02539,0.5 C 36.288568,35.658592 41.093629,31 47,31 c 1.015035,0.0041 2.024614,0.14873 3,0.429688 v -1 C 49.024614,30.14873 48.015035,30.004128 47,30 Z M 17,36 C 10.924872,36 6,40.924872 6,47 6,47.168757 6.017871,47.333099 6.025391,47.5 6.288568,41.658591 11.093629,37 17,37 c 1.015035,0.0041 2.024615,0.14873 3,0.429688 v -1 C 19.024615,36.14873 18.015035,36.004128 17,36 Z"
       id="path3" /></g></svg>

<svg xmlns="http://www.w3.org/2000/svg" width="64" height="64" version="1">
 <path style="opacity:0.2" d="M 54.010765,7.2401554 24.06068,14.145149 c -4.221512,0.532153 -4.060689,4.854879 -4.060689,4.854879 v 3.999997 14.429678 c -0.975385,-0.280958 -1.984963,-0.42556 -2.999998,-0.429688 -6.075128,0 -10.9999924,4.924865 -10.9999924,10.999993 C 6.0000006,54.075135 10.924865,59 16.999993,59 c 5.685644,-0.0028 10.432335,-4.337893 10.94921,-9.999993 h 0.05078 V 48.000008 21.316432 L 49.99997,16.083911 v 15.345796 c -0.975386,-0.280958 -1.984963,-0.425559 -2.999998,-0.429687 -6.075128,0 -10.999992,4.924864 -10.999992,10.999992 0,6.075128 4.924864,10.999992 10.999992,10.999992 5.685644,-0.0028 10.432335,-4.337893 10.94921,-9.999993 h 0.05078 V 14.400318 11.000034 c 0,0 0.05206,-4.6106686 -3.989199,-3.7598786 z"/>
 <path style="fill:#4f4f4f" d="M 54.010765,6.2401568 24.06068,13.14515 c -4.221512,0.532153 -4.060689,4.854879 -4.060689,4.854879 v 3.999998 14.429677 c -0.975385,-0.280957 -1.984963,-0.425559 -2.999998,-0.429687 -6.075128,0 -10.9999924,4.924864 -10.9999924,10.999992 0,6.075128 4.9248644,10.999992 10.9999924,10.999992 5.685644,-0.0028 10.432335,-4.337893 10.94921,-9.999993 h 0.05078 V 47.000009 20.316434 L 49.99997,15.083912 v 15.345797 c -0.975386,-0.280958 -1.984963,-0.42556 -2.999998,-0.429688 -6.075128,0 -10.999992,4.924865 -10.999992,10.999992 0,6.075128 4.924864,10.999993 10.999992,10.999993 5.685644,-0.0028 10.432335,-4.337893 10.94921,-9.999993 h 0.05078 V 13.40032 10.000035 c 0,0 0.05206,-4.6106682 -3.989199,-3.7598782 z"/>
 <path style="opacity:0.1;fill:#ffffff" d="M 54.720703 6.1425781 C 54.499091 6.1555439 54.264297 6.18706 54.011719 6.2402344 L 24.060547 13.144531 C 19.839035 13.676684 20 18 20 18 L 20 19 C 20 19 19.839035 14.676684 24.060547 14.144531 L 54.011719 7.2402344 C 58.052978 6.3894444 58 11 58 11 L 58 10 C 58 10 58.044878 5.9480919 54.720703 6.1425781 z M 47 30 C 40.924872 30 36 34.924873 36 41 C 36 41.168757 36.017871 41.333099 36.025391 41.5 C 36.288568 35.658592 41.093629 31 47 31 C 48.015035 31.004128 49.024614 31.14873 50 31.429688 L 50 30.429688 C 49.024614 30.14873 48.015035 30.004128 47 30 z M 17 36 C 10.924872 36 6 40.924872 6 47 C 6 47.168757 6.0178711 47.333099 6.0253906 47.5 C 6.288568 41.658591 11.093629 37 17 37 C 18.015035 37.004128 19.024615 37.14873 20 37.429688 L 20 36.429688 C 19.024615 36.14873 18.015035 36.004128 17 36 z"/>
</svg>
